**kern	**kern	**dynam
*part1	*part1	*part1
*staff2	*staff1	*
*I"Piano	*	*
*clefF4	*clefG2	*
*k[]	*k[]	*
=1	=1	=1
8r	(8b-XL 8bb-X	.
(8E-X'L 8B-X 8d-X	8dd-X 8ddd-X	p
8E-' 8B- 8d-	8ee-X 8eee-X	p
8E-'J) 8B- 8d-	8ffJ) 8fff	p
=	=	=
([4En [4B-X 4d-X	([4g [4b-X 4dd-X	.
8E]) 8B-] 8c	8g]) 8b-] 8cc	.
8r	8r	.
=	=	=
([4E [4B-X 4d-X	([4g [4b-X 4dd-X	.
8E]) 8B-] 8c	8g]) 8b-] 8cc	.
8r	8r	.
=	=	=
!	!LO:TX:b:i:t=cresc.	!
([4E [4G [4B-X 4dn	([4g [4b-X 4ddn	p
8E]) 8G] 8B-] 8c#X	8g]) 8b-] 8cc#X	.
8r	8r	.
=	=	=
([4G [4B-X [4c#X 4f	([4g [4b-X [4cc#X 4ff	.
8G]) 8B-] 8c#] 8e	8g]) 8b-] 8cc#] 8ee	.
8r	8r	.
=	=	=
*^	*^	*
(4.e	[2F [2A	(4.ee	[2f [2a	>
8d	.	8dd	.	.
=	=	=	=	=
4A])	4F]	4a])	4f]	]
*	*	*v	*v	*
4r	4ryy	4re	.
*v	*v	*	*
=	=	=
*-	*-	*-
!!!system-decoration: {(s1,s2)}
